examples/demo-composable-pfp/assets/accessory/glasses.svg

<?xml version="1.0" encoding="UTF-8"?>
<svg width="264px" height="280px" viewBox="0 0 264 280" version="1.1" xmlns="http://www.w3.org/2000/svg" xmlns:xlink="http://www.w3.org/1999/xlink">
    <!-- Generator: Sketch 58 (84663) - https://sketch.com -->
    <title>EDIT ME</title>
    <desc>Created with Sketch.</desc>
    <defs>
        <rect id="path-1" x="0" y="0" width="264" height="280"></rect>
        <path d="M102,3 C110.919724,3 118.702944,7.86594657 122.839966,15.0881434 C123.049977,15.0306809 123.271405,15 123.5,15 L131.5,15 C132.880712,15 134,16.1192881 134,17.5 C134,18.8807119 132.880712,20 131.5,20 L124.963112,19.9999542 C125.63735,22.2145597 126,24.5649291 126,27 C126,40.254834 115.254834,51 102,51 C88.745166,51 78,40.254834 78,27 C78,25.5817328 78.1230214,24.1921987 78.3589754,22.8414867 C78.2814883,18.460693 74.9167538,15 70.8624171,15 C67.1244063,15 63.9725878,17.9417418 63.4412238,21.8340095 C63.8076631,23.4981856 64,25.2266315 64,27 C64,40.254834 53.254834,51 40,51 C26.745166,51 16,40.254834 16,27 C16,24.5649291 16.3626501,22.2145597 17.0368877,19.9999542 L10.5,20 C9.11928813,20 8,18.8807119 8,17.5 C8,16.1192881 9.11928813,15 10.5,15 L18.5,15 C18.7285947,15 18.9500235,15.0306809 19.1603931,15.0881495 C23.2970555,7.86594657 31.0802764,3 40,3 C49.3522436,3 57.4550935,8.34929022 61.4157763,16.1550973 C63.492635,13.0394413 66.9492812,11 70.8624171,11 C74.874933,11 78.4074783,13.1443461 80.4650049,16.3947271 C84.3793874,8.45920672 92.5521607,3 102,3 Z M40,7 C28.954305,7 20,15.954305 20,27 C20,38.045695 28.954305,47 40,47 C51.045695,47 60,38.045695 60,27 C60,15.954305 51.045695,7 40,7 Z M102,7 C90.954305,7 82,15.954305 82,27 C82,38.045695 90.954305,47 102,47 C113.045695,47 122,38.045695 122,27 C122,15.954305 113.045695,7 102,7 Z" id="path-3"></path>
        <filter x="-0.8%" y="-2.1%" width="101.6%" height="108.3%" filterUnits="objectBoundingBox" id="filter-4">
            <feOffset dx="0" dy="2" in="SourceAlpha" result="shadowOffsetOuter1"></feOffset>
            <feColorMatrix values="0 0 0 0 0   0 0 0 0 0   0 0 0 0 0  0 0 0 0.1 0" type="matrix" in="shadowOffsetOuter1"></feColorMatrix>
        </filter>
    </defs>
    <g id="EDIT-ME" stroke="none" stroke-width="1" fill="none" fill-rule="evenodd">
        <g id="Top">
            <mask id="mask-2" fill="white">
                <use xlink:href="#path-1"></use>
            </mask>
            <g id="Mask"></g>
            <g mask="url(#mask-2)" id="Top/_Resources/Round">
                <g transform="translate(48.000000, 18.000000)">
                    <g transform="translate(13.000000, 67.000000)">
                        <g id="Lennon-Glasses">
                            <use fill="black" fill-opacity="1" filter="url(#filter-4)" xlink:href="#path-3"></use>
                            <use fill="#252C2F" fill-rule="evenodd" xlink:href="#path-3"></use>
                        </g>
                    </g>
                </g>
            </g>
        </g>
    </g>
</svg>

<svg xmlns="http://www.w3.org/2000/svg" xmlns:xlink="http://www.w3.org/1999/xlink" width="264" height="280"><defs><path id="fb0d73ba__a" d="M0 0h264v280H0z"/><path id="7d7c7a92__d" d="M102 3c8.92 0 16.703 4.866 20.84 12.088q.316-.087.66-.088h8a2.5 2.5 0 1 1 0 5h-6.537A24 24 0 0 1 126 27c0 13.255-10.745 24-24 24S78 40.255 78 27c0-1.418.123-2.808.359-4.159-.078-4.38-3.442-7.841-7.497-7.841-3.738 0-6.89 2.942-7.42 6.834A24 24 0 0 1 64 27c0 13.255-10.745 24-24 24S16 40.255 16 27c0-2.435.363-4.785 1.037-7H10.5a2.5 2.5 0 1 1 0-5h8q.344 0 .66.088C23.297 7.866 31.08 3 40 3c9.352 0 17.455 5.35 21.416 13.155C63.493 13.04 66.949 11 70.862 11c4.013 0 7.545 2.144 9.603 5.395C84.379 8.459 92.552 3 102 3M40 7c-11.046 0-20 8.954-20 20s8.954 20 20 20 20-8.954 20-20S51.046 7 40 7m62 0c-11.046 0-20 8.954-20 20s8.954 20 20 20 20-8.954 20-20-8.954-20-20-20"/><filter id="c21ee69b__c" width="101.6%" height="108.3%" x="-.8%" y="-2.1%" filterUnits="objectBoundingBox"><feOffset dy="2" in="SourceAlpha" result="shadowOffsetOuter1"/><feColorMatrix in="shadowOffsetOuter1" values="0 0 0 0 0 0 0 0 0 0 0 0 0 0 0 0 0 0 0.1 0"/></filter></defs><g fill="none" fill-rule="evenodd"><mask id="198a1ab4__b" fill="#fff"><use xlink:href="#fb0d73ba__a"/></mask><g mask="url(#198a1ab4__b)"><g transform="translate(61 85)"><use xlink:href="#7d7c7a92__d" fill="#000" filter="url(#c21ee69b__c)"/><use xlink:href="#7d7c7a92__d" fill="#252C2F"/></g></g></g></svg>
